X:1168
L:1/8
M:6/8
K:D
 A | ded fed | afd e2 A | ded fed | afd Te2 (c/d/) | ecd ecd | ecd e2 (a/g/) | agf edc | 
 dBe A2 (a/g/) | agf edc | dBe A2 A | cde ecA | efg Tf2 f | bag fed | ecf B2 B | ^dfB efe | 
 cAc d2 (d/e/) | fed afd | afd A2 (d/c/) | dcB Agf | edc Td2 (d'/c'/) | d'c'b agf | gea d2 |]

